X: 4350
T: Ból An Bothair
R: reel
M: 4/4
K: Dmajor
|:(3ABc|d2 ag fddB|A2 dB ADDE|FDAD BDAD|G2 EF GABc|
d2 ag fddB A2 dB ADDE|FDAD BAFA|(3Bcd ce d2:|
|:ag|f2 ag fdef|g2 ba geef|d2 ag fdAB|=c2 Bc AGEG|
Add^c dfaf|g2 ba geef|d2 AB =cAGc|Add^c d2:|

